src/icons/graphql.svg

<svg width="16" height="16" viewBox="0 0 16 16" fill="none" xmlns="http://www.w3.org/2000/svg">
<path d="M4.00397 11.128L3.57397 10.876L8.36398 2.422L8.79397 2.675L4.00397 11.128Z" fill="#FF9CAC" stroke="#FF9CAC" stroke-width="0.5"/>
<path d="M3.47583 10.2H13.0538V10.706H3.47583V10.2Z" fill="#FF9CAC" stroke="#FF9CAC" stroke-width="0.5"/>
<path fill-rule="evenodd" clip-rule="evenodd" d="M7.8268 3.13798L12.6178 5.95698L12.8658 5.51798L8.0758 2.69998L7.8268 3.13798ZM3.66479 10.485L8.4558 13.304L8.7038 12.865L3.91379 10.047L3.66479 10.485Z" fill="#FF9CAC"/>
<path d="M12.6179 5.95699L12.4909 6.17199L12.7109 6.30099L12.8359 6.07999L12.6179 5.95699ZM7.82793 3.13699L7.60993 3.01399L7.48793 3.22799L7.69993 3.35299L7.82793 3.13699ZM12.8669 5.51799L13.0839 5.64199L13.2049 5.42799L12.9929 5.30299L12.8669 5.51799ZM8.07493 2.69999L8.20193 2.48499L7.98293 2.35599L7.85793 2.57699L8.07493 2.69999ZM8.45593 13.305L8.32893 13.52L8.54893 13.649L8.67393 13.428L8.45593 13.305ZM3.66593 10.485L3.44793 10.362L3.32593 10.576L3.53793 10.701L3.66593 10.485ZM8.70393 12.866L8.92193 12.99L9.04293 12.776L8.83093 12.651L8.70393 12.866ZM3.91393 10.048L4.03993 9.83199L3.82093 9.70299L3.69593 9.92399L3.91393 10.048ZM12.7449 5.74199L7.95393 2.92199L7.69993 3.35299L12.4909 6.17199L12.7449 5.74199ZM12.6489 5.39599L12.4009 5.83399L12.8359 6.07999L13.0839 5.64199L12.6489 5.39599ZM7.94893 2.91599L12.7389 5.73499L12.9929 5.30299L8.20293 2.48499L7.94893 2.91599ZM8.04493 3.26199L8.29293 2.82399L7.85793 2.57699L7.60993 3.01499L8.04493 3.26199ZM8.58293 13.089L3.79193 10.27L3.53793 10.701L8.32893 13.52L8.58293 13.089ZM8.48693 12.743L8.23893 13.181L8.67393 13.428L8.92193 12.99L8.48693 12.743ZM3.78693 10.263L8.57693 13.082L8.83093 12.651L4.03993 9.83199L3.78693 10.263ZM3.88293 10.609L4.13093 10.171L3.69593 9.92399L3.44793 10.362L3.88293 10.609Z" fill="#FF9CAC"/>
<path d="M3.91502 5.955L3.66602 5.516L8.45702 2.698L8.70602 3.136L3.91502 5.955Z" fill="#FF9CAC" stroke="#FF9CAC" stroke-width="0.5"/>
<path fill-rule="evenodd" clip-rule="evenodd" d="M12.18 10.512L7.73998 2.675L8.16998 2.422L12.18 9.501V10.512ZM12.355 10.819H12.181L12.18 10.512L12.355 10.819ZM12.355 10.819H12.677V10.377L12.96 10.875L12.53 11.128L12.355 10.819ZM12.677 10.377L12.18 9.501L12.181 5.18H12.677V10.377ZM3.85498 5.18H4.35198V10.818H3.85498V5.18Z" fill="#FF9CAC"/>
<path d="M7.74 2.675L7.614 2.46L7.402 2.584L7.523 2.798L7.74 2.675ZM8.17 2.422L8.388 2.299L8.263 2.078L8.043 2.207L8.17 2.422ZM12.18 10.819H11.93V11.069H12.18V10.819ZM12.677 10.819V11.069H12.927V10.819H12.677ZM12.96 10.875L13.087 11.091L13.299 10.966L13.177 10.752L12.96 10.875ZM12.53 11.128L12.312 11.252L12.438 11.472L12.657 11.344L12.53 11.128ZM12.18 5.181V4.931H11.93V5.181H12.18ZM12.677 5.181H12.927V4.931H12.677V5.181ZM4.352 5.181H4.602V4.931H4.352V5.181ZM3.855 5.181V4.931H3.605V5.181H3.855ZM4.352 10.819V11.069H4.602V10.819H4.352ZM3.855 10.819H3.605V11.069H3.855V10.819ZM7.523 2.798L11.963 10.636L12.398 10.389L7.958 2.552L7.523 2.798ZM8.043 2.207L7.614 2.46L7.867 2.89L8.297 2.638L8.043 2.207ZM12.398 9.377L8.388 2.299L7.953 2.546L11.963 9.625L12.398 9.377ZM12.431 10.512V9.501H11.931V10.512H12.431ZM12.355 10.569H12.181L12.18 11.069H12.355V10.569ZM12.431 10.819V10.512H11.931L11.93 10.819H12.431ZM11.963 10.636L12.137 10.942L12.572 10.695L12.398 10.389L11.963 10.636ZM12.677 10.569H12.355V11.069H12.677V10.569ZM12.427 10.377V10.819H12.927V10.377H12.427ZM13.177 10.752L12.895 10.254L12.46 10.5L12.742 10.999L13.177 10.752ZM12.657 11.344L13.087 11.091L12.833 10.66L12.403 10.913L12.657 11.344ZM12.137 10.942L12.312 11.252L12.747 11.005L12.572 10.695L12.137 10.942ZM12.895 10.254L12.398 9.377L11.963 9.624L12.46 10.5L12.895 10.254ZM12.43 9.5V5.18H11.93V9.5H12.43ZM12.18 5.43H12.676V4.93H12.18V5.43ZM12.426 5.18V10.376H12.926V5.18H12.426ZM4.351 4.93H3.854V5.43H4.351V4.93ZM4.601 10.818V5.18H4.101V10.818H4.601ZM3.854 11.068H4.351V10.568H3.854V11.068ZM3.604 5.18V10.818H4.104V5.18H3.604Z" fill="#FF9CAC"/>
<path d="M8.37203 13.09L8.15503 12.707L12.322 10.255L12.539 10.637L8.37203 13.09Z" fill="#FF9CAC" stroke="#FF9CAC" stroke-width="0.5"/>
<path fill-rule="evenodd" clip-rule="evenodd" d="M7.22282 3.09699C7.22282 3.68499 7.68882 4.15999 8.26582 4.15999C8.84282 4.15999 9.30982 3.68499 9.30982 3.09699C9.30982 2.50799 8.84282 2.03299 8.26582 2.03299C7.68882 2.03299 7.22282 2.50799 7.22282 3.09699ZM3.57682 6.46999C4.07682 6.76299 4.71682 6.58899 5.00382 6.07999C5.14219 5.83555 5.17959 5.54672 5.10804 5.27509C5.03649 5.00347 4.86166 4.77054 4.62082 4.62599C4.50189 4.55641 4.37026 4.51128 4.23366 4.49324C4.09706 4.47521 3.95823 4.48463 3.82532 4.52095C3.6924 4.55728 3.56808 4.61978 3.45964 4.70478C3.3512 4.78979 3.26083 4.89559 3.19382 5.01599C3.05518 5.26037 3.01764 5.54929 3.08921 5.82099C3.16077 6.09269 3.33578 6.32562 3.57682 6.46999ZM11.9088 11.374C12.4088 11.666 13.0488 11.492 13.3348 10.984C13.6248 10.474 13.4548 9.82499 12.9518 9.52999C12.8329 9.46057 12.7014 9.41557 12.5649 9.39762C12.4284 9.37966 12.2897 9.38912 12.1569 9.42544C12.0241 9.46176 11.8999 9.52421 11.7915 9.60913C11.6832 9.69404 11.5928 9.79973 11.5258 9.91999C11.3872 10.1644 11.3496 10.4533 11.4212 10.725C11.4928 10.9967 11.6678 11.2296 11.9088 11.374ZM3.19682 10.984C3.05844 10.7395 3.02104 10.4507 3.09259 10.1791C3.16414 9.90747 3.33898 9.67454 3.57982 9.52999C3.69875 9.46041 3.83037 9.41528 3.96697 9.39724C4.10358 9.37921 4.2424 9.38863 4.37532 9.42495C4.50823 9.46128 4.63255 9.52378 4.74099 9.60878C4.84943 9.69379 4.93981 9.79959 5.00682 9.91999C5.14519 10.1644 5.18259 10.4533 5.11104 10.7249C5.03949 10.9965 4.86466 11.2294 4.62382 11.374C4.50492 11.4437 4.37329 11.4889 4.23666 11.5071C4.10003 11.5252 3.96115 11.5158 3.8282 11.4794C3.69525 11.4431 3.57091 11.3806 3.46248 11.2955C3.35405 11.2104 3.26373 11.1045 3.19682 10.984ZM11.9118 4.62599C11.4118 4.92199 11.2418 5.57099 11.5288 6.07999C11.8158 6.58899 12.4558 6.76299 12.9558 6.46999C13.4548 6.17499 13.6258 5.52499 13.3378 5.01599C13.2708 4.89573 13.1805 4.79004 13.0721 4.70513C12.9638 4.62021 12.8395 4.55776 12.7067 4.52144C12.5739 4.48512 12.4352 4.47566 12.2987 4.49362C12.1622 4.51157 12.0307 4.55657 11.9118 4.62599ZM8.26582 13.967C8.12745 13.9657 7.99069 13.9371 7.86337 13.8829C7.73605 13.8287 7.62066 13.75 7.52379 13.6512C7.42693 13.5523 7.35049 13.4354 7.29884 13.307C7.2472 13.1787 7.22137 13.0414 7.22282 12.903C7.22282 12.315 7.68882 11.84 8.26582 11.84C8.84282 11.84 9.30982 12.315 9.30982 12.903C9.30982 13.489 8.84282 13.967 8.26582 13.967Z" fill="#FF9CAC"/>
<path d="M5.00691 9.91999L5.22391 9.79699V9.79599L5.00691 9.91999ZM8.26591 3.90999C8.16046 3.90868 8.05629 3.88662 7.95937 3.84505C7.86244 3.80349 7.77465 3.74324 7.70101 3.66774C7.62738 3.59225 7.56933 3.50299 7.53019 3.40506C7.49105 3.30712 7.47159 3.20244 7.47291 3.09699H6.97291C6.97291 3.81799 7.54691 4.40999 8.26591 4.40999V3.90999ZM9.05991 3.09699C9.06123 3.20253 9.04173 3.30729 9.00253 3.40528C8.96333 3.50328 8.9052 3.59258 8.83145 3.66809C8.75771 3.7436 8.6698 3.80383 8.57276 3.84534C8.47572 3.88685 8.37145 3.90881 8.26591 3.90999V4.40999C8.98591 4.40999 9.55991 3.81799 9.55991 3.09699H9.05991ZM8.26591 2.28299C8.70091 2.28299 9.05991 2.64199 9.05991 3.09699H9.55991C9.55991 2.37499 8.98591 1.78299 8.26591 1.78299V2.28299ZM7.47291 3.09699C7.47291 2.64199 7.83191 2.28299 8.26591 2.28299V1.78299C7.54591 1.78299 6.97291 2.37499 6.97291 3.09699H7.47291ZM4.78591 5.95699C4.73519 6.04836 4.66673 6.12869 4.58455 6.19325C4.50238 6.25782 4.40814 6.30533 4.30736 6.33299C4.20658 6.36065 4.10129 6.36792 3.99767 6.35435C3.89404 6.34078 3.79417 6.30666 3.70391 6.25399L3.45091 6.68599C3.59842 6.77215 3.76164 6.82804 3.93101 6.85038C4.10038 6.87271 4.2725 6.86106 4.43731 6.81608C4.60212 6.77111 4.75631 6.69372 4.89086 6.58845C5.0254 6.48318 5.13761 6.35214 5.22091 6.20299L4.78591 5.95699ZM4.49391 4.84199C4.87391 5.06699 5.00691 5.56499 4.78591 5.95699L5.22091 6.20299C5.39146 5.90163 5.43746 5.54554 5.34909 5.21073C5.26072 4.87592 5.04497 4.58892 4.74791 4.41099L4.49391 4.84199ZM3.41191 5.13899C3.46263 5.04762 3.53109 4.96729 3.61327 4.90272C3.69544 4.83816 3.78968 4.79065 3.89046 4.76299C3.99124 4.73532 4.09653 4.72806 4.20015 4.74163C4.30378 4.75519 4.40365 4.78932 4.49391 4.84199L4.74791 4.41099C4.6004 4.32482 4.43618 4.26894 4.26681 4.2466C4.09744 4.22426 3.92532 4.23592 3.76051 4.2809C3.5957 4.32587 3.44151 4.40326 3.30696 4.50853C3.17242 4.6138 3.06021 4.74484 2.97691 4.89399L3.41191 5.13899ZM3.70391 6.25399C3.51953 6.14284 3.38583 5.9641 3.33129 5.75584C3.27675 5.54757 3.30568 5.32624 3.41191 5.13899L2.97691 4.89399C2.80618 5.19541 2.76019 5.55167 2.84878 5.88657C2.93736 6.22147 3.15348 6.5084 3.45091 6.68599L3.70391 6.25399ZM13.1179 10.861C13.0672 10.9525 12.9987 11.0329 12.9164 11.0976C12.8342 11.1623 12.7398 11.2098 12.6389 11.2375C12.538 11.2652 12.4326 11.2724 12.3289 11.2587C12.2252 11.2451 12.1252 11.2108 12.0349 11.158L11.7819 11.589C11.9295 11.6753 12.0928 11.7313 12.2622 11.7537C12.4317 11.7762 12.604 11.7646 12.7689 11.7196C12.9338 11.6746 13.0881 11.5972 13.2227 11.4918C13.3574 11.3864 13.4696 11.2553 13.5529 11.106L13.1179 10.861ZM12.8259 9.74499C13.0115 9.85505 13.1462 10.0338 13.2009 10.2425C13.2555 10.4512 13.2257 10.6731 13.1179 10.86L13.5519 11.107C13.7246 10.806 13.7718 10.449 13.6833 10.1134C13.5947 9.77787 13.3776 9.49066 13.0789 9.31399L12.8259 9.74499ZM11.7439 10.043C11.7945 9.95153 11.8629 9.87111 11.9451 9.80645C12.0272 9.74178 12.1214 9.69417 12.2222 9.66641C12.323 9.63865 12.4283 9.6313 12.532 9.6448C12.6357 9.65829 12.7356 9.69236 12.8259 9.74499L13.0789 9.31399C12.9315 9.22778 12.7683 9.17284 12.599 9.15043C12.4296 9.12802 12.2575 9.13959 12.0927 9.18447C11.9279 9.22935 11.7737 9.30664 11.6391 9.41181C11.5046 9.51698 11.3923 9.64792 11.3089 9.79699L11.7439 10.043ZM12.0349 11.158C11.8507 11.0467 11.7172 10.8679 11.6629 10.6596C11.6085 10.4514 11.6376 10.2301 11.7439 10.043L11.3079 9.79699C11.1372 10.0984 11.0912 10.4547 11.1798 10.7896C11.2684 11.1245 11.4845 11.4114 11.7819 11.589L12.0349 11.158ZM3.45291 9.31499C3.15611 9.49291 2.94056 9.77973 2.8522 10.1143C2.76384 10.4489 2.80967 10.8047 2.97991 11.106L3.41491 10.861C3.30862 10.6736 3.27967 10.4521 3.3342 10.2437C3.38874 10.0352 3.52246 9.85632 3.70691 9.74499L3.45291 9.31499ZM5.22391 9.79599C5.14052 9.64692 5.02726 9.51598 4.89267 9.41081C4.75808 9.30564 4.60388 9.22835 4.43908 9.18347C4.27428 9.1386 4.10218 9.12702 3.93285 9.14943C3.76353 9.17184 3.60036 9.22878 3.45291 9.31499L3.70691 9.74499C3.79733 9.69224 3.8964 9.6581 4.00021 9.64459C4.10402 9.63109 4.20949 9.63848 4.3104 9.66634C4.41131 9.6942 4.50563 9.74197 4.58781 9.80682C4.66999 9.87168 4.73836 9.95231 4.78891 10.044L5.22391 9.79599ZM4.74991 11.589C5.04697 11.4111 5.26372 11.1241 5.35209 10.7892C5.44046 10.4544 5.39446 10.0983 5.22391 9.79699L4.78891 10.044C4.8948 10.2314 4.92343 10.4518 4.86872 10.66C4.81401 10.8682 4.68026 11.0468 4.49591 11.158L4.74991 11.589ZM2.97991 11.106C3.33491 11.736 4.12591 11.953 4.74991 11.589L4.49791 11.158C4.40764 11.211 4.30768 11.2453 4.20392 11.259C4.10016 11.2728 3.99471 11.2656 3.89377 11.2379C3.79284 11.2102 3.69846 11.1626 3.61622 11.0979C3.53398 11.0331 3.46553 10.9526 3.41491 10.861L2.97991 11.106ZM11.7469 5.95699C11.6409 5.76968 11.6122 5.54843 11.6667 5.34024C11.7212 5.13205 11.8547 4.95331 12.0389 4.84199L11.7839 4.41199C11.4874 4.5899 11.272 4.87654 11.1837 5.21087C11.0953 5.5452 11.141 5.90182 11.3109 6.20299L11.7469 5.95699ZM12.8289 6.25399C12.7386 6.30666 12.6388 6.34078 12.5352 6.35435C12.4315 6.36792 12.3262 6.36065 12.2255 6.33299C12.1247 6.30533 12.0304 6.25782 11.9483 6.19325C11.8661 6.12869 11.7976 6.04836 11.7469 5.95699L11.3109 6.20299C11.6659 6.83299 12.4619 7.04999 13.0819 6.68599L12.8289 6.25399ZM13.1199 5.13899C13.2262 5.32639 13.2552 5.54788 13.2006 5.75631C13.1461 5.96474 13.0124 6.14366 12.8279 6.25499L13.0829 6.68499C13.3797 6.50707 13.5953 6.22025 13.6836 5.88568C13.772 5.55111 13.7262 5.19526 13.5559 4.89399L13.1199 5.13899ZM12.0389 4.84199C12.1293 4.7892 12.2283 4.755 12.3321 4.74143C12.4358 4.72785 12.5413 4.73515 12.6422 4.76292C12.7431 4.79069 12.8374 4.83835 12.9196 4.9031C13.0018 4.96786 13.0703 5.0484 13.1209 5.13999L13.5549 4.89299C13.4715 4.74392 13.3593 4.61298 13.2247 4.50781C13.0901 4.40264 12.9359 4.32535 12.7711 4.28047C12.6063 4.23559 12.4342 4.22402 12.2649 4.24643C12.0955 4.26884 11.9324 4.32478 11.7849 4.41099L12.0389 4.84199ZM6.97291 12.904C6.97291 13.625 7.54691 14.217 8.26591 14.217V13.717C8.16037 13.7157 8.05612 13.6936 7.95913 13.652C7.86214 13.6103 7.77431 13.55 7.70066 13.4744C7.627 13.3988 7.56898 13.3094 7.5299 13.2114C7.49082 13.1133 7.47146 13.0085 7.47291 12.903L6.97291 12.904ZM8.26591 11.59C7.54591 11.59 6.97291 12.182 6.97291 12.903H7.47291C7.47291 12.449 7.83191 12.09 8.26591 12.09V11.59ZM9.55991 12.903C9.55991 12.182 8.98591 11.59 8.26591 11.59V12.09C8.70091 12.09 9.05991 12.449 9.05991 12.903H9.55991ZM8.26591 14.217C8.98591 14.217 9.55991 13.622 9.55991 12.903H9.05991C9.05991 13.355 8.69991 13.717 8.26591 13.717V14.217Z" fill="#FF9CAC"/>
</svg>

<svg xmlns="http://www.w3.org/2000/svg" width="16" height="16" fill="none"><g fill="#FF9CAC"><path stroke="#FF9CAC" stroke-width=".5" d="m4.004 11.128-.43-.252 4.79-8.454.43.253z"/><path stroke="#FF9CAC" stroke-width=".5" d="M3.476 10.2h9.578v.506H3.476z"/><path fill-rule="evenodd" d="m7.827 3.138 4.791 2.819.248-.439L8.076 2.7zm-4.162 7.347 4.791 2.819.248-.439-4.79-2.818z" clip-rule="evenodd"/><path d="m12.618 5.957-.127.215.22.129.125-.221zm-4.79-2.82-.218-.123-.122.214.212.125zm5.039 2.381.217.124.121-.214-.212-.125zM8.075 2.7l.127-.215-.219-.129-.125.221zm.381 10.605-.127.215.22.129.125-.221zm-4.79-2.82-.218-.123-.122.214.212.125zm5.038 2.381.218.124.121-.214-.212-.125zm-4.79-2.818.126-.216-.219-.129-.125.221zm8.831-4.306L7.954 2.922l-.254.431 4.792 2.819zm-.096-.346-.248.438.435.247.248-.438zm-4.7-2.48 4.79 2.819.254-.431-4.79-2.819zm.096.346.248-.438-.435-.247-.248.438zm.538 9.827-4.791-2.819-.254.431 4.791 2.819zm-.096-.346-.248.438.435.247.248-.438zm-4.7-2.48 4.79 2.819.254-.431-4.79-2.819zm.096.346.248-.438-.435-.247-.248.438z"/><path stroke="#FF9CAC" stroke-width=".5" d="m3.915 5.955-.249-.439 4.791-2.818.249.438z"/><path fill-rule="evenodd" d="M12.18 10.512 7.74 2.675l.43-.253 4.01 7.079zm.175.307h-.174v-.307zm0 0h.322v-.442l.283.498-.43.253zm.322-.442-.496-.876V5.18h.496zM3.855 5.18h.497v5.638h-.497z" clip-rule="evenodd"/><path d="m7.74 2.675-.126-.215-.212.124.121.214zm.43-.253.218-.123-.125-.221-.22.129zm4.01 8.397h-.25v.25h.25zm.497 0v.25h.25v-.25zm.283.056.127.216.212-.125-.122-.214zm-.43.253-.218.124.126.22.219-.128zm-.35-5.947v-.25h-.25v.25zm.497 0h.25v-.25h-.25zm-8.325 0h.25v-.25h-.25zm-.497 0v-.25h-.25v.25zm.497 5.638v.25h.25v-.25zm-.497 0h-.25v.25h.25zm3.668-8.02 4.44 7.837.435-.247-4.44-7.837zm.52-.592-.43.253.254.43.43-.252zm4.355 7.17L8.388 2.3l-.435.246 4.01 7.079zm.033 1.135V9.501h-.5v1.011zm-.076.057h-.174v.5h.174zm.076.25v-.307h-.5v.307zm-.468-.183.174.306.435-.247-.174-.306zm.714-.067h-.322v.5h.322zm-.25-.192v.442h.5v-.442zm.75.375-.282-.498-.435.246.282.499zm-.52.592.43-.253-.254-.431-.43.253zm-.52-.402.175.31.435-.247-.175-.31zm.758-.688-.497-.877-.435.247.497.876zM12.43 9.5V5.18h-.5V9.5zm-.25-4.07h.496v-.5h-.496zm.246-.25v5.196h.5V5.18zm-8.075-.25h-.497v.5h.497zm.25 5.888V5.18h-.5v5.638zm-.747.25h.497v-.5h-.497zm-.25-5.888v5.638h.5V5.18z"/><path stroke="#FF9CAC" stroke-width=".5" d="m8.372 13.09-.217-.383 4.167-2.452.217.382z"/><path fill-rule="evenodd" d="M7.223 3.097c0 .588.466 1.063 1.043 1.063S9.31 3.685 9.31 3.097c0-.589-.467-1.064-1.044-1.064s-1.043.475-1.043 1.064M3.577 6.47c.5.293 1.14.119 1.427-.39a1.077 1.077 0 0 0-.383-1.454 1.035 1.035 0 0 0-1.427.39 1.076 1.076 0 0 0 .383 1.454m8.332 4.904c.5.292 1.14.118 1.426-.39.29-.51.12-1.159-.383-1.454a1.035 1.035 0 0 0-1.426.39 1.076 1.076 0 0 0 .383 1.454m-8.712-.39A1.077 1.077 0 0 1 3.58 9.53a1.035 1.035 0 0 1 1.427.39 1.077 1.077 0 0 1-.383 1.454 1.034 1.034 0 0 1-1.427-.39m8.715-6.358c-.5.296-.67.945-.383 1.454s.927.683 1.427.39c.499-.295.67-.945.382-1.454a1.035 1.035 0 0 0-1.426-.39m-3.646 9.341a1.053 1.053 0 0 1-1.043-1.064c0-.588.466-1.063 1.043-1.063s1.044.475 1.044 1.063c0 .586-.467 1.064-1.044 1.064" clip-rule="evenodd"/><path d="m5.004 6.08-.218-.123zm-1.427.39.127-.216zm1.044-1.844.127-.215zm-1.427.39.218.123zm10.141 5.967-.217-.123zm-1.426.39.126-.215zm1.043-1.843.127-.216zm-1.426.39.218.123zM3.58 9.53l-.126-.216h-.001zm-.383 1.453-.217.123zm1.81-1.063.217-.123v-.001zm-.383 1.454.126.215h.001zm6.905-5.294-.218.123zm.383-1.454-.127-.215zm1.043 1.844.127.216zm.383-1.454.218-.122v-.001zM8.266 3.91a.803.803 0 0 1-.793-.813h-.5c0 .721.574 1.313 1.293 1.313zm.794-.813a.803.803 0 0 1-.794.813v.5c.72 0 1.294-.592 1.294-1.313zm-.794-.814c.435 0 .794.359.794.814h.5c0-.722-.574-1.314-1.294-1.314zm-.793.814c0-.455.359-.814.793-.814v-.5c-.72 0-1.293.592-1.293 1.314zm-2.687 2.86a.785.785 0 0 1-1.082.297l-.253.432a1.285 1.285 0 0 0 1.77-.483zm-.292-1.115c.38.225.513.723.292 1.115l.435.246a1.327 1.327 0 0 0-.473-1.792zm-1.082.297a.785.785 0 0 1 1.082-.297l.253-.431a1.285 1.285 0 0 0-1.77.483zm.292 1.115a.826.826 0 0 1-.292-1.115l-.435-.245a1.326 1.326 0 0 0 .474 1.792zm9.414 4.607a.785.785 0 0 1-1.083.297l-.253.431a1.285 1.285 0 0 0 1.771-.483zm-.292-1.116a.82.82 0 0 1 .292 1.115l.434.247a1.32 1.32 0 0 0-.473-1.793zm-1.082.298a.785.785 0 0 1 1.082-.298l.253-.43a1.285 1.285 0 0 0-1.77.482zm.291 1.115a.826.826 0 0 1-.291-1.115l-.436-.246a1.326 1.326 0 0 0 .474 1.792zM3.453 9.315a1.327 1.327 0 0 0-.473 1.791l.435-.245a.827.827 0 0 1 .292-1.116zm1.77.481a1.285 1.285 0 0 0-1.77-.482l.253.431a.785.785 0 0 1 1.083.299zm-.472 1.793a1.327 1.327 0 0 0 .473-1.792l-.435.246a.827.827 0 0 1-.293 1.115zm-1.771-.483c.355.63 1.146.847 1.77.483l-.252-.431a.784.784 0 0 1-1.083-.297zm8.767-5.149a.827.827 0 0 1 .292-1.115l-.255-.43a1.327 1.327 0 0 0-.473 1.79zm1.082.297a.785.785 0 0 1-1.082-.297l-.436.246c.355.63 1.15.847 1.77.483zm.291-1.115a.827.827 0 0 1-.292 1.116l.255.43a1.327 1.327 0 0 0 .473-1.791zm-1.082-.297a.785.785 0 0 1 1.083.298l.434-.247a1.285 1.285 0 0 0-1.77-.482zm-5.065 8.062c0 .721.574 1.313 1.293 1.313v-.5a.803.803 0 0 1-.793-.814zm1.293-1.314c-.72 0-1.293.592-1.293 1.313h.5c0-.454.359-.813.793-.813zm1.294 1.313c0-.721-.574-1.313-1.294-1.313v.5c.435 0 .794.359.794.813zm-1.294 1.314c.72 0 1.294-.595 1.294-1.314h-.5c0 .452-.36.814-.794.814z"/></g></svg>
